symbols/web/stars/materialsymbolsrounded/stars_wght700grad200fill1_20px.svg

<svg xmlns="http://www.w3.org/2000/svg" height="20" width="20"><path d="m10 12.562 1.583 1.209q.459.354.907.031.448-.323.302-.864l-.625-2.042 1.541-1.104q.459-.354.292-.865-.167-.51-.729-.51h-1.896l-.667-2.125q-.146-.584-.708-.573-.562.01-.708.573l-.646 2.125H6.729q-.541 0-.719.51-.177.511.282.865l1.541 1.104-.625 2.042q-.146.541.313.864.458.323.917-.031Zm0 6.73q-1.938 0-3.635-.719-1.698-.719-2.959-1.979-1.26-1.261-1.979-2.959Q.708 11.938.708 10q0-1.938.719-3.635.719-1.698 1.979-2.959 1.261-1.26 2.959-1.979Q8.062.708 10 .708q1.938 0 3.635.719 1.698.719 2.959 1.979 1.26 1.261 1.979 2.959.719 1.697.719 3.635 0 1.938-.719 3.635-.719 1.698-1.979 2.959-1.261 1.26-2.959 1.979-1.697.719-3.635.719Z"/></svg>

<svg xmlns="http://www.w3.org/2000/svg" height="20" width="20"><path d="M10 12.562 11.583 13.771Q12.042 14.125 12.49 13.802Q12.938 13.479 12.792 12.938L12.167 10.896L13.708 9.792Q14.167 9.438 14 8.927Q13.833 8.417 13.271 8.417H11.375L10.708 6.292Q10.562 5.708 10 5.719Q9.438 5.729 9.292 6.292L8.646 8.417H6.729Q6.188 8.417 6.01 8.927Q5.833 9.438 6.292 9.792L7.833 10.896L7.208 12.938Q7.062 13.479 7.521 13.802Q7.979 14.125 8.438 13.771ZM10 19.292Q8.062 19.292 6.365 18.573Q4.667 17.854 3.406 16.594Q2.146 15.333 1.427 13.635Q0.708 11.938 0.708 10Q0.708 8.062 1.427 6.365Q2.146 4.667 3.406 3.406Q4.667 2.146 6.365 1.427Q8.062 0.708 10 0.708Q11.938 0.708 13.635 1.427Q15.333 2.146 16.594 3.406Q17.854 4.667 18.573 6.365Q19.292 8.062 19.292 10Q19.292 11.938 18.573 13.635Q17.854 15.333 16.594 16.594Q15.333 17.854 13.635 18.573Q11.938 19.292 10 19.292Z"/></svg>
